app/img/icons/truck.svg

<svg width="26" height="21" viewBox="0 0 26 21" fill="none" xmlns="http://www.w3.org/2000/svg">
<path d="M25.18 10.0528L22.555 3.70906C22.488 3.54526 22.376 3.4055 22.2328 3.30719C22.0897 3.20889 21.9218 3.15639 21.75 3.15625H19.125V1.34375C19.125 1.1034 19.0328 0.872889 18.8687 0.702935C18.7046 0.53298 18.4821 0.4375 18.25 0.4375H1.625C1.39294 0.4375 1.17038 0.53298 1.00628 0.702935C0.842187 0.872889 0.75 1.1034 0.75 1.34375V16.75C0.75 16.9904 0.842187 17.2209 1.00628 17.3908C1.17038 17.5608 1.39294 17.6562 1.625 17.6562H3.4975C3.699 18.4242 4.13888 19.1021 4.74927 19.5854C5.35967 20.0687 6.10666 20.3306 6.875 20.3306C7.64334 20.3306 8.39033 20.0687 9.00073 19.5854C9.61112 19.1021 10.051 18.4242 10.2525 17.6562H15.7475C15.949 18.4242 16.3889 19.1021 16.9993 19.5854C17.6097 20.0687 18.3567 20.3306 19.125 20.3306C19.8933 20.3306 20.6403 20.0687 21.2507 19.5854C21.8611 19.1021 22.301 18.4242 22.5025 17.6562H24.375C24.6071 17.6562 24.8296 17.5608 24.9937 17.3908C25.1578 17.2209 25.25 16.9904 25.25 16.75V10.4062C25.2498 10.2848 25.226 10.1646 25.18 10.0528ZM19.125 4.96875H21.1725L23.045 9.5H19.125V4.96875ZM6.875 18.5625C6.52888 18.5625 6.19054 18.4562 5.90275 18.257C5.61497 18.0579 5.39066 17.7748 5.25821 17.4436C5.12576 17.1124 5.0911 16.748 5.15863 16.3964C5.22615 16.0448 5.39282 15.7219 5.63756 15.4684C5.88231 15.2149 6.19413 15.0423 6.53359 14.9723C6.87306 14.9024 7.22493 14.9383 7.5447 15.0755C7.86447 15.2127 8.13778 15.445 8.33007 15.743C8.52236 16.0411 8.625 16.3915 8.625 16.75C8.625 17.2307 8.44063 17.6917 8.11244 18.0316C7.78425 18.3715 7.33913 18.5625 6.875 18.5625ZM15.7475 15.8437H10.2525C10.051 15.0758 9.61112 14.3979 9.00073 13.9146C8.39033 13.4313 7.64334 13.1694 6.875 13.1694C6.10666 13.1694 5.35967 13.4313 4.74927 13.9146C4.13888 14.3979 3.699 15.0758 3.4975 15.8437H2.5V2.25H17.375V13.6325C16.9766 13.872 16.6277 14.1906 16.3484 14.5701C16.0691 14.9495 15.8649 15.3824 15.7475 15.8437ZM19.125 18.5625C18.7789 18.5625 18.4405 18.4562 18.1528 18.257C17.865 18.0579 17.6407 17.7748 17.5082 17.4436C17.3758 17.1124 17.3411 16.748 17.4086 16.3964C17.4762 16.0448 17.6428 15.7219 17.8876 15.4684C18.1323 15.2149 18.4441 15.0423 18.7836 14.9723C19.1231 14.9024 19.4749 14.9383 19.7947 15.0755C20.1145 15.2127 20.3878 15.445 20.5801 15.743C20.7724 16.0411 20.875 16.3915 20.875 16.75C20.875 17.2307 20.6906 17.6917 20.3624 18.0316C20.0342 18.3715 19.5891 18.5625 19.125 18.5625ZM23.5 15.8437H22.5025C22.309 15.0676 21.8726 14.3797 21.2614 13.8878C20.6503 13.3959 19.899 13.1276 19.125 13.125V11.3125H23.5V15.8437Z" fill="black"/>
</svg>

<svg width="26" height="21" fill="none" xmlns="http://www.w3.org/2000/svg"><path d="M25.18 10.053l-2.625-6.344a.9.9 0 00-.322-.402.853.853 0 00-.483-.15h-2.625V1.343a.924.924 0 00-.256-.641.86.86 0 00-.619-.265H1.625a.86.86 0 00-.619.265.923.923 0 00-.256.64V16.75c0 .24.092.47.256.64a.86.86 0 00.619.266h1.873a3.633 3.633 0 001.251 1.93c.61.483 1.358.745 2.126.745.768 0 1.515-.262 2.126-.746a3.633 3.633 0 001.252-1.929h5.495a3.633 3.633 0 001.251 1.93c.61.483 1.358.745 2.126.745.768 0 1.515-.262 2.126-.746a3.633 3.633 0 001.252-1.929h1.872a.86.86 0 00.619-.265c.164-.17.256-.4.256-.641v-6.344a.933.933 0 00-.07-.353zm-6.055-5.084h2.047L23.046 9.5h-3.92V4.969zM6.875 18.562c-.346 0-.684-.106-.972-.305a1.8 1.8 0 01-.645-.813 1.873 1.873 0 01-.1-1.048c.068-.351.235-.674.48-.928a1.73 1.73 0 01.896-.496c.34-.07.69-.034 1.01.104.32.137.594.369.786.667a1.859 1.859 0 01-.218 2.289 1.72 1.72 0 01-1.237.53zm8.873-2.718h-5.495A3.634 3.634 0 009 13.914a3.422 3.422 0 00-2.126-.745c-.768 0-1.515.262-2.126.746a3.634 3.634 0 00-1.251 1.929H2.5V2.25h14.875v11.383a3.556 3.556 0 00-1.027.937c-.279.38-.483.812-.6 1.274zm3.377 2.719a1.71 1.71 0 01-.972-.306 1.8 1.8 0 01-.645-.813 1.873 1.873 0 01-.1-1.048c.068-.351.235-.674.48-.928a1.73 1.73 0 01.896-.496c.34-.07.69-.034 1.01.104.32.137.594.369.786.667a1.859 1.859 0 01-.218 2.289 1.72 1.72 0 01-1.237.53zm4.375-2.72h-.997a3.637 3.637 0 00-1.242-1.955 3.424 3.424 0 00-2.136-.763v-1.813H23.5v4.532z" fill="#000"/></svg>
